deployments/warp_routes/AMPHRETH/logo.svg

<svg width="37" height="37" viewBox="0 0 37 37" fill="none" xmlns="http://www.w3.org/2000/svg">
<path d="M18.5 37C28.7521 37 37 28.7521 37 18.5C37 8.24786 28.7521 0 18.5 0C8.24786 0 0 8.24786 0 18.5C0 28.7521 8.24786 37 18.5 37Z" fill="#E41A1A"/>
<path d="M18.4972 3L18.2892 3.70644V24.204L18.4972 24.4115L28.0117 18.7874L18.4972 3Z" fill="#F4A4A4"/>
<path d="M18.4972 3L8.98242 18.7874L18.4972 24.4115V14.4626V3Z" fill="white"/>
<path d="M18.4971 26.213L18.3799 26.356V33.6575L18.4971 33.9997L28.0175 20.5918L18.4971 26.213Z" fill="#F4A4A4"/>
<path d="M18.4972 33.9997V26.213L8.98242 20.5918L18.4972 33.9997Z" fill="white"/>
<path d="M18.4972 24.4114L28.0118 18.7872L18.4972 14.4624V24.4114Z" fill="#E94848"/>
<path d="M8.98242 18.7872L18.4972 24.4114V14.4624L8.98242 18.7872Z" fill="#F4A4A4"/>
<path d="M28.7837 20.9999H28.784C33.0827 20.9999 36.5676 24.4848 36.5676 28.7836V28.7838C36.5676 33.0826 33.0828 36.5675 28.784 36.5675H28.7837C24.4849 36.5675 21 33.0826 21 28.7838V28.7836C21 24.4848 24.4849 20.9999 28.7837 20.9999Z" fill="white" stroke="#B9BABE" stroke-width="0.432432"/>
<mask id="mask0_4441_3909" style="mask-type:luminance" maskUnits="userSpaceOnUse" x="26" y="22" width="6" height="14">
<path d="M26.6357 22.6157H31.3646V35.3837H26.6357V22.6157Z" fill="white"/>
</mask>
<g mask="url(#mask0_4441_3909)">
<path fill-rule="evenodd" clip-rule="evenodd" d="M28.9768 22.6159C29.0049 22.6158 29.0336 22.6157 29.0628 22.6157V22.6164C29.9508 22.6239 30.2678 22.691 30.3396 22.7409C30.3573 22.7532 30.3511 22.7778 30.3413 22.7979L29.9195 23.6695L29.92 23.6691C29.907 23.6955 29.8955 23.7483 29.9534 23.7483H30.3916C30.4877 23.7483 30.6673 23.8274 30.6673 24.0474V25.69C31.1565 26.1727 31.2736 27.0329 31.2645 27.4633C31.2645 28.9598 30.442 30.7508 29.9005 31.9299C29.6348 32.5086 29.4367 32.9399 29.4367 33.1168C29.4367 33.6541 29.772 34.3784 30.1505 34.647C30.4533 34.8619 30.5291 35.1493 30.529 35.2661H28.5606L27.4297 35.266C27.4297 35.1493 27.5054 34.8619 27.8082 34.647C28.1868 34.3783 28.522 33.6541 28.522 33.1168C28.522 32.9399 28.324 32.5086 28.0582 31.9299C27.5167 30.7508 26.6942 28.9598 26.6942 27.4633C26.6851 27.0329 26.8023 26.1727 27.2914 25.69V24.0474C27.2914 23.8274 27.471 23.7483 27.5671 23.7483H28.0054C28.0633 23.7483 28.0517 23.6955 28.0387 23.6691L28.0392 23.6695L27.6174 22.7979C27.6076 22.7777 27.6014 22.7532 27.6192 22.7409C27.6909 22.6909 28.0079 22.6239 28.8959 22.6164V22.6157C28.9233 22.6157 28.9503 22.6158 28.9768 22.6159ZM28.0562 23.9996C28.0892 23.9996 28.1506 24.0208 28.1792 24.0973C28.2525 24.5239 28.2051 25.1153 27.6772 25.4256C27.6224 25.3912 27.5671 25.3305 27.5671 25.2365V24.1168C27.5688 24.0777 27.5917 23.9996 27.6699 23.9996H28.0562ZM29.9026 23.9996C29.8696 23.9996 29.8081 24.0208 29.7795 24.0972C29.7062 24.5239 29.7537 25.1153 30.2816 25.4256C30.3364 25.3912 30.3916 25.3305 30.3916 25.2365V24.1168C30.3899 24.0777 30.367 23.9996 30.2889 23.9996H29.9026Z" fill="black"/>
</g>
</svg>

<svg xmlns="http://www.w3.org/2000/svg" width="37" height="37" fill="none" viewBox="0 0 37 37"><path fill="#E41A1A" d="M18.5 37C28.752 37 37 28.752 37 18.5S28.752 0 18.5 0A18.456 18.456 0 0 0 0 18.5C0 28.752 8.248 37 18.5 37"/><path fill="#F4A4A4" d="m18.497 3-.208.706v20.498l.208.207 9.515-5.624z"/><path fill="#fff" d="M18.497 3 8.982 18.787l9.515 5.625z"/><path fill="#F4A4A4" d="m18.497 26.213-.117.143v7.301l.117.343 9.52-13.408z"/><path fill="#fff" d="M18.497 34v-7.787l-9.515-5.621z"/><path fill="#E94848" d="m18.497 24.411 9.515-5.624-9.515-4.325z"/><path fill="#F4A4A4" d="m8.982 18.787 9.515 5.624v-9.949z"/><path fill="#fff" stroke="#B9BABE" stroke-width=".432" d="M28.784 21a7.784 7.784 0 0 1 0 15.568 7.784 7.784 0 0 1 0-15.568Z"/><mask id="a" width="6" height="14" x="26" y="22" maskUnits="userSpaceOnUse" style="mask-type:luminance"><path fill="#fff" d="M26.636 22.616h4.729v12.768h-4.73z"/></mask><g mask="url(#a)"><path fill="#000" fill-rule="evenodd" d="M28.977 22.616h.086c.888.008 1.205.075 1.277.125.017.012.011.037.001.057l-.422.872h.001c-.013.025-.025.078.033.078h.439c.096 0 .275.08.275.3v1.642c.49.483.607 1.343.598 1.773 0 1.497-.823 3.288-1.364 4.467-.266.579-.464 1.01-.464 1.187 0 .537.335 1.261.713 1.53.303.215.38.502.379.62h-1.968l-1.131-.001c0-.117.075-.404.378-.619.379-.269.714-.993.714-1.53 0-.177-.198-.608-.464-1.187-.541-1.18-1.364-2.97-1.364-4.467-.009-.43.108-1.29.597-1.773v-1.643c0-.22.18-.299.276-.299h.438c.058 0 .047-.053.034-.079l-.422-.871c-.01-.02-.016-.045.002-.057.072-.05.389-.117 1.277-.125zM28.057 24c.032 0 .094.02.122.097.074.427.026 1.018-.502 1.329a.22.22 0 0 1-.11-.19v-1.12c.002-.038.025-.116.103-.116zm1.846 0c-.033 0-.095.02-.123.097-.074.427-.026 1.018.502 1.329a.22.22 0 0 0 .11-.19v-1.12c-.002-.038-.025-.116-.103-.116z" clip-rule="evenodd"/></g></svg>
